apps/app.mento.org/public/tokens/eXOF.svg

<svg width="40" height="40" viewBox="0 0 40 40" fill="none" xmlns="http://www.w3.org/2000/svg">
<g clip-path="url(#clip0_4004_57040)">
<path d="M20 40C31.0457 40 40 31.0457 40 20C40 8.95431 31.0457 0 20 0C8.95431 0 0 8.95431 0 20C0 31.0457 8.95431 40 20 40Z" fill="#CC00C5"/>
<path d="M30.7825 12.4227C30.5041 12.1859 26.8305 12.4563 26.8305 12.4563C26.2457 12.5707 26.2289 12.1779 26.2289 12.1779L26.1841 11.9827C26.1841 11.9827 25.3097 6.74993 21.3577 6.51313C21.3577 6.51313 18.5729 6.38753 16.0665 9.17553C16.0665 9.17553 14.3345 11.1027 13.9809 11.8963C13.8465 12.0763 13.6465 12.1963 13.4241 12.2307C13.4241 12.2307 9.89048 13.6227 9.40568 13.9819C8.92088 14.3411 9.06888 14.7475 9.06888 14.7475C9.08008 15.2715 9.27368 15.7747 9.61608 16.1707C9.95848 16.5667 10.4289 16.8307 10.9457 16.9171C10.9457 16.9171 11.3105 17.0483 12.4521 15.7755L13.8449 14.4691C13.8449 14.4691 14.9369 17.6747 15.1009 17.8307C15.2649 17.9867 15.4153 18.1875 16.2401 18.0923C17.0641 17.9979 18.0833 17.3595 18.1585 16.4211C18.1585 16.4211 18.2449 16.2147 17.7545 15.7387C17.7545 15.7387 15.4825 12.9819 15.4233 12.9203C15.3649 12.8587 15.2593 12.7339 15.4705 12.4723C15.6825 12.2107 17.7705 8.96113 20.4833 8.74113C20.4833 8.74113 22.0793 8.54033 22.3745 10.4787C22.3745 10.4787 21.5865 10.2139 21.3665 10.3451C21.1465 10.4763 20.9905 10.6155 21.0633 11.2115V12.1835C21.0633 12.1915 21.0633 12.2003 21.0633 12.2083C21.0633 12.3139 21.0185 12.5651 20.4617 12.4563C20.4617 12.4563 16.7777 12.1779 16.5105 12.4227C16.2433 12.6675 16.3129 12.7459 16.5577 13.0715L20.2057 17.8699C19.9569 18.0491 19.7633 18.2939 19.6465 18.5779C19.5297 18.8611 19.4953 19.1723 19.5457 19.4739C19.6553 20.1307 20.1793 20.4395 20.5601 20.5787C20.8225 20.6747 21.1425 20.5747 21.3809 20.7203C21.4433 20.7587 21.4905 20.8219 21.5001 20.9243C21.5337 21.2835 21.8345 22.4611 21.8177 22.6731C21.8009 22.8851 21.8761 22.9515 21.3585 23.0243C20.8409 23.0963 17.9609 23.2803 17.7385 24.1795L20.7641 24.2891C21.1577 24.3035 21.5793 24.3515 21.8497 24.6379C21.9865 24.7827 22.0889 24.9563 22.1497 25.1459L22.2441 26.3795C22.2441 26.3795 22.2481 26.4491 22.2441 26.4883C22.2401 26.5275 22.2265 26.5659 22.2041 26.5987C22.1817 26.6315 22.1505 26.6579 22.1145 26.6755C22.0785 26.6931 22.0185 26.7051 22.0185 26.7051L21.6873 26.7219C21.6873 26.7219 19.6433 26.8331 19.2809 27.8355L21.0457 27.8899C21.5601 27.9059 22.2545 27.9035 22.3857 28.4011C22.3929 28.4291 22.3977 28.4595 22.4001 28.4907C22.4225 28.8971 22.4193 29.5403 22.4193 29.5403C22.4193 29.5403 22.4193 29.7299 22.0521 29.7299C21.6849 29.7299 20.2921 30.0475 20.1809 30.8435C20.1809 30.8435 22.0993 30.8659 22.1305 30.8795C22.2441 30.9187 22.3433 30.9899 22.4169 31.0851C22.5625 31.2739 22.5881 31.5331 22.5657 31.7699C22.5593 31.8355 22.5473 31.8995 22.5297 31.9627C22.4977 32.0771 22.4129 32.2035 22.3449 32.3003C22.2961 32.3691 22.2705 32.4155 22.2417 32.4947C22.1841 32.6507 22.1089 32.9251 22.2177 33.0827C22.4625 33.3611 23.0529 33.5003 23.6409 33.4867C24.2289 33.4731 24.8161 33.3667 25.0609 33.0827C25.2193 32.8547 24.9889 32.3779 24.9889 32.3779C24.9889 32.3779 24.8497 32.1803 24.8105 32.1299C24.7073 31.9067 24.6801 31.6547 24.7353 31.4147C24.7441 31.2947 24.7881 31.1803 24.8609 31.0851C24.9337 30.9899 25.0337 30.9187 25.1473 30.8795C25.1921 30.8659 27.1105 30.8435 27.1105 30.8435C26.9993 30.0411 25.6009 29.7299 25.2393 29.7299C24.8777 29.7299 24.8857 29.5515 24.8857 29.5515C24.8857 29.5515 24.8857 28.9083 24.9049 28.5019C24.9145 28.2987 25.0593 28.1539 25.2025 28.0611C25.3769 27.9475 25.5897 27.9227 25.7977 27.9171L28.0265 27.8587C27.6641 26.8451 25.6201 26.7451 25.6201 26.7451L25.2889 26.7283C25.2889 26.7283 25.2289 26.7155 25.1929 26.6979C25.1569 26.6803 25.1265 26.6539 25.1033 26.6211C25.0809 26.5883 25.0665 26.5499 25.0633 26.5107C25.0593 26.4707 25.0633 26.4027 25.0633 26.4027L25.1129 25.7619C25.1433 25.3675 25.1873 24.9483 25.4585 24.6611C25.7297 24.3747 26.1497 24.3259 26.5433 24.3123L29.5689 24.2027C29.3377 23.3035 26.4585 23.1251 25.9489 23.0467C25.4393 22.9691 25.5057 22.9075 25.4897 22.6963C25.4729 22.4843 25.7681 21.3043 25.8097 20.9475C25.8161 20.8947 25.8321 20.8515 25.8553 20.8179C26.0505 20.5291 26.5257 20.6987 26.8465 20.5635C27.2129 20.4091 27.6617 20.0995 27.7617 19.4971C27.8129 19.1947 27.7793 18.8843 27.6625 18.6011C27.5465 18.3171 27.3529 18.0723 27.1041 17.8931L30.7241 13.0947C30.9801 12.7467 31.0473 12.6603 30.7825 12.4235V12.4227Z" fill="white"/>
</g>
<defs>
<clipPath id="clip0_4004_57040">
<rect width="40" height="40" fill="white"/>
</clipPath>
</defs>
</svg>

<svg xmlns="http://www.w3.org/2000/svg" width="40" height="40" fill="none" viewBox="0 0 40 40"><g clip-path="url(#a)"><path fill="#CC00C5" d="M20 40c11.046 0 20-8.954 20-20S31.046 0 20 0 0 8.954 0 20s8.954 20 20 20"/><path fill="#fff" d="M30.783 12.423c-.279-.237-3.953.033-3.953.033-.584.115-.601-.278-.601-.278l-.045-.195s-.874-5.233-4.826-5.47c0 0-2.785-.125-5.291 2.663 0 0-1.732 1.927-2.086 2.72a.86.86 0 0 1-.557.335s-3.534 1.392-4.018 1.75c-.485.36-.337.767-.337.767a2.25 2.25 0 0 0 1.877 2.17s.364.13 1.506-1.142l1.393-1.307s1.092 3.206 1.256 3.362.314.357 1.14.261c.823-.094 1.842-.732 1.918-1.67 0 0 .086-.207-.404-.683 0 0-2.272-2.757-2.332-2.819-.058-.061-.164-.186.047-.448.212-.261 2.3-3.51 5.013-3.73 0 0 1.596-.202 1.892 1.737 0 0-.788-.265-1.009-.134s-.375.27-.303.866v.997c0 .106-.044.357-.601.248 0 0-3.684-.278-3.951-.033-.268.245-.198.323.047.649l3.648 4.798a1.64 1.64 0 0 0-.66 1.604c.11.657.633.965 1.014 1.105.263.096.582-.004.82.141.063.039.11.102.12.204.034.36.334 1.537.318 1.75-.017.211.058.277-.46.35-.517.072-3.397.256-3.62 1.156l3.026.11c.394.014.815.062 1.086.348.136.145.239.318.3.508l.094 1.233s.004.07 0 .11a.23.23 0 0 1-.13.187c-.036.017-.096.03-.096.03l-.33.016s-2.045.111-2.407 1.113l1.765.055c.514.016 1.209.014 1.34.511a1 1 0 0 1 .014.09c.023.406.02 1.05.02 1.05s0 .189-.368.189c-.367 0-1.76.317-1.871 1.113 0 0 1.918.023 1.95.037.113.039.212.11.286.205.145.189.171.448.149.685q-.01.099-.036.193c-.032.114-.117.24-.185.337a.7.7 0 0 0-.103.195c-.058.156-.133.43-.024.588.244.278.835.417 1.423.404.588-.014 1.175-.12 1.42-.404.158-.228-.072-.705-.072-.705s-.14-.198-.178-.248a1.1 1.1 0 0 1-.076-.715.62.62 0 0 1 .412-.535c.045-.014 1.963-.037 1.963-.037-.11-.802-1.51-1.113-1.87-1.113-.362 0-.354-.178-.354-.178s0-.644.019-1.05c.01-.203.154-.348.297-.44.175-.114.388-.14.596-.145l2.229-.058c-.363-1.014-2.407-1.114-2.407-1.114l-.331-.017s-.06-.013-.096-.03a.23.23 0 0 1-.13-.187c-.004-.04 0-.108 0-.108l.05-.641c.03-.395.074-.814.346-1.1.27-.287.69-.336 1.084-.35l3.026-.11c-.231-.899-3.11-1.077-3.62-1.155s-.443-.14-.46-.35c-.016-.213.28-1.393.32-1.75a.3.3 0 0 1 .046-.13c.195-.288.67-.118.991-.253.367-.155.816-.465.916-1.067a1.63 1.63 0 0 0-.658-1.604l3.62-4.798c.256-.348.323-.435.058-.671z"/></g><defs><clipPath id="a"><path fill="#fff" d="M0 0h40v40H0z"/></clipPath></defs></svg>
